X: 30910
T: Over The Hill
R: reel
M: 4/4
K: Gmajor
A|:DGGA BGAG|eged BGAG|DGGA B2 AG|(3Bcd cA [1AGAG:|2 AGG||
g|faAg fddf|gffd cAFA|faag fdde|dgfa g2 ga|
(3bag ag fddf|gffd cAFA|DGGA B2 AG|(3Bcd cA AGAG||

